X: 0
T: The College Hornpipe
T: 8 x 32R3C (RSCDS Book 20)
R: reel
C: arr. T. Traub 6-26-03
P: Jolly Tars
M: 4/4
L: 1/8
K: F
|: cB|"F"AFAc "Bb"dBdf|"C"eceg "F"f2 fe|"Bb"dfed "F"cAfe|"Gm"dcBA "C"G2 cB|"F"AFAc "Bb"dBdf|
"C"eceg "Dm"f2 fe|"Bb"dbag "C"fede|"F"f2 f2 f2 :: gf|"C"eceg b2 ag|"F"fcfa c'2 ba|
"Gm"g^fga "Bb"bag=f|"C"e2 c2 c2 cB|"F"AFAc "Bb"dBdf|"C"eceg "Dm"f2 fe|"Bb"dbag "C"fede|"F"f2 f2 f2 :|
P: Quindaro Hornpipe
R: reel
C: New England
C: arr. T. Traub 6-26-03
M: 4/4
L: 1/8
K: G
|: gf|"G"g2 G2 G2 BG|"D"FADF "G"G2 Bc|"G"dBed "C"cBAG|"D"FA D2 D2 gf|"G"g2 G2 G2 BG|
"D"FADF "Em"G2 AB|"C"cedc "D"BAGF| "G"G2 B2 G2 :||: dc|"G"BgBc d2 cB|"Am"caAB "D7"c2 BA|
"G"Bded "C"cBAG|"D"FA D2 D2 ga|"G"bgfg dgfg|"Em"bgfg dgfg|"C"edcB "D"AGFA |"G"G2 B2 G2 :|
P: College Hornpipe
R: reel
C: from Pinewoods Collection
C: arr. T. Traub 6-26-03
M: 4/4
L: 1/8
K: A
|: ag|"A"a2 A2 A2 ed|"A"ce a2 a2 b^a|"Bm"b2 B2 B2 BA|"E"GB e2 e2 fg|"A"agfe "F#m"fedc|
"D"dcBA "B7"BAGF|"E"EAGB AcBd|"A"c2 A2 A2 :||: ed|"A"ceae ceae|"D"f2 d2 d2 fe|
"B"^dfbf dfbf|"E"g2 e2 e2 fg|"A" agfe "F#m"fedc|"D"dcBA "B7"BAGF|"E"EAGB AcBd|"A"c2 A2 A2 :|
P: Mountain Ranger Hornpipe
R: hornpipe
C: Kerr's Third
C: arr. T. Traub 6-26-03
M: 4/4
L: 1/8
K: Bb
|: FB|"Bb"DFBc d2 cd|"Eb"edcB G2 FE|"Bb"DFBc dBAB|"Gm"gfdB "F"c2 FE|"Bb"DFBc d2 cd|
"Cm"edcB "Eb"G2 FE|"Bb"DFBd "F"cBAc B2 b2 B2 :|\
|: Bc|"Bb"dBAB GBFB|"Bb" DFBc dBAB|
"Eb"gBfB edcB|"Cm"GccB "F"ABce|"Bb"dBAB GBFB|"Bb"DFBc dBAB|"Eb"gBfB "Cm"edcB|"F"AFGA "Bb"B2 :|
